X: 17
T: Terrebonne
O: trad. Au\'ebec
S: handout at Roaring Jelly practice, Jan 2017
R: reel
Z: 2017 John Chambers <jc:trillian.mit.edu>
M: C|
L: 1/16
K: A
(3ABc "A"|:\
"D"d2cd BAFA | d2cd "A7"eABc | "D"d2cd "G"B2AF | "A7"GBAG "D"FDD2 |
"D"d2cd BAFA | d2cd "A7"eABc | "D"d2cd "G"B2Ad | "A7"fdec d2 :|
"B"|: z2 |\
"D"f3a "(G)"gfed | "D"fdfd "A7"Acde | "D"fdfa "(G)"gfed |\
[1,3 "A7"cdea "D"fdd2 :|[2,4 "A7"cABc "D"d2 :|

